packages/react-icons/icons/thumb-down.svg

<svg width="24" height="24" viewBox="0 0 24 24" xmlns="http://www.w3.org/2000/svg">
<path fill-rule="evenodd" clip-rule="evenodd" d="M2.91612 11.9171L6.17567 4.30811H15.1583V14.2981L15.1581 14.2999L10.8308 18.635L11.9357 13.3081H3.82831C3.11687 13.3081 2.63186 12.5792 2.91612 11.9171ZM9.47831 15.3081L8.52831 19.8881C8.42831 20.3881 8.57831 20.8981 8.93831 21.2581C9.52831 21.8381 10.4683 21.8381 11.0483 21.2481L16.5783 15.7081C16.9483 15.3381 17.1583 14.8281 17.1583 14.2981V4.30811C17.1583 3.20811 16.2583 2.30811 15.1583 2.30811H6.16831C5.36831 2.30811 4.64831 2.78811 4.33831 3.51811L1.07831 11.1281C0.228311 13.1081 1.67831 15.3081 3.82831 15.3081H9.47831ZM19.1684 4.30811C19.1684 3.20811 20.0684 2.30811 21.1684 2.30811C22.2684 2.30811 23.1684 3.20811 23.1684 4.30811V12.3081C23.1684 13.4081 22.2684 14.3081 21.1684 14.3081C20.0684 14.3081 19.1684 13.4081 19.1684 12.3081V4.30811Z" />
</svg>

<svg xmlns="http://www.w3.org/2000/svg" width="24" height="24"><path fill-rule="evenodd" d="m2.916 11.917 3.26-7.609h8.982V14.3l-4.327 4.335 1.105-5.327H3.828a.996.996 0 0 1-.912-1.39Zm6.562 3.391-.95 4.58c-.1.5.05 1.01.41 1.37.59.58 1.53.58 2.11-.01l5.53-5.54c.37-.37.58-.88.58-1.41v-9.99c0-1.1-.9-2-2-2h-8.99c-.8 0-1.52.48-1.83 1.21l-3.26 7.61c-.85 1.98.6 4.18 2.75 4.18h5.65Zm9.69-11c0-1.1.9-2 2-2s2 .9 2 2v8c0 1.1-.9 2-2 2s-2-.9-2-2v-8Z" clip-rule="evenodd"/></svg>
